app/assets/img/chat.svg

<svg width="40" height="40" fill="none" xmlns="http://www.w3.org/2000/svg"><rect width="40" height="40" rx="20" fill="#FF3E79"/><path fill-rule="evenodd" clip-rule="evenodd" d="M28 11H12c-1.1 0-1.99.9-1.99 2L10 31l4-5h14c1.1 0 2-.9 2-2V13c0-1.1-.9-2-2-2Zm-7 11h-6c-.55 0-1-.45-1-1s.45-1 1-1h6c.55 0 1 .45 1 1s-.45 1-1 1Zm4-5H15c-.55 0-1-.45-1-1s.45-1 1-1h10c.55 0 1 .45 1 1s-.45 1-1 1Z" fill="#fff"/></svg>

<svg width="40" height="40" viewBox="0 0 40 40" fill="none" xmlns="http://www.w3.org/2000/svg">
<g id="ic/chat">
<rect id="back" width="40" height="40" rx="20" fill="#FF3E79"/>
<path id="icon" fill-rule="evenodd" clip-rule="evenodd" d="M28 11H12C10.9 11 10.01 11.9 10.01 13L10 31L14 26H28C29.1 26 30 25.1 30 24V13C30 11.9 29.1 11 28 11ZM21 22H15C14.45 22 14 21.55 14 21C14 20.45 14.45 20 15 20H21C21.55 20 22 20.45 22 21C22 21.55 21.55 22 21 22ZM25 17H15C14.45 17 14 16.55 14 16C14 15.45 14.45 15 15 15H25C25.55 15 26 15.45 26 16C26 16.55 25.55 17 25 17Z" fill="white"/>
<mask id="mask0_0_1880" style="mask-type:luminance" maskUnits="userSpaceOnUse" x="10" y="11" width="20" height="20">
<path id="icon_2" fill-rule="evenodd" clip-rule="evenodd" d="M28 11H12C10.9 11 10.01 11.9 10.01 13L10 31L14 26H28C29.1 26 30 25.1 30 24V13C30 11.9 29.1 11 28 11ZM21 22H15C14.45 22 14 21.55 14 21C14 20.45 14.45 20 15 20H21C21.55 20 22 20.45 22 21C22 21.55 21.55 22 21 22ZM25 17H15C14.45 17 14 16.55 14 16C14 15.45 14.45 15 15 15H25C25.55 15 26 15.45 26 16C26 16.55 25.55 17 25 17Z" fill="white"/>
</mask>
<g mask="url(#mask0_0_1880)">
</g>
</g>
</svg>
